; generated by Slic3r 1.3.0 on 2021-06-21 at 08:00:13

; external perimeters extrusion width = 0.50mm (0.00mm^3/s)
; perimeters extrusion width = 0.50mm (0.00mm^3/s)
; infill extrusion width = 0.50mm (7.31mm^3/s)
; solid infill extrusion width = 0.50mm (1.83mm^3/s)
; top infill extrusion width = 0.25mm (0.62mm^3/s)
; support material extrusion width = 0.18mm (1.64mm^3/s)

M107
M190 S65 ; set bed temperature and wait for it to be reached
M109 S195 ; set temperature and wait for it to be reached
G28 ; home all axes
G1 Z5 F5000 ; lift nozzle

G21 ;metric values
G90 ;absolute positioning
M82 ;set extruder to absolute mode
M107 ;start with the fan off
G28 X0 Y0 ;move X/Y to min endstops
G28 Z0 ;move Z to min endstops
G1 Z15.0 F{speed_travel} ;move the platform down 15mm
G92 E0 ;zero the extruded length
G1 F200 E3 ;extrude 3mm of feed stock
G92 E0 ;zero the extruded length again
G1 F{speed_travel}
G0 Y20 F{speed_travel}
M117 Printing...
G5
; Filament gcode

M109 S195 ; set temperature and wait for it to be reached
G21 ; set units to millimeters
G90 ; use absolute coordinates
M82 ; use absolute distances for extrusion
G92 E0

G1 E-3.50000 F3600.00000
G92 E0
G1 Z1.000 F7800.000
G1 X87.893 Y89.118 F7800.000
G1 Z0.200 F7800.000
G1 E3.50000 F3600.00000
G1 F1800
G1 X89.666 Y87.503 E3.54543
G1 X91.870 Y86.555 E3.59087
G1 X93.590 Y86.348 E3.62369
G1 X116.410 Y86.348 E4.05591
G1 X118.776 Y86.745 E4.10135
G1 X120.882 Y87.893 E4.14678
G1 X122.497 Y89.666 E4.19222
G1 X123.445 Y91.870 E4.23765
G1 X123.652 Y93.590 E4.27047
G1 X123.652 Y116.410 E4.70270
G1 X123.255 Y118.776 E4.74813
G1 X122.107 Y120.882 E4.79356
G1 X120.334 Y122.497 E4.83900
G1 X118.130 Y123.445 E4.88443
G1 X116.410 Y123.652 E4.91725
G1 X93.590 Y123.652 E5.34948
G1 X91.224 Y123.255 E5.39491
G1 X89.118 Y122.107 E5.44035
G1 X87.503 Y120.334 E5.48578
G1 X86.555 Y118.130 E5.53121
G1 X86.348 Y116.410 E5.56404
G1 X86.348 Y93.590 E5.99626
G1 X86.745 Y91.224 E6.04169
G1 X87.864 Y89.171 E6.08599
G1 X88.098 Y89.192 F7800.000
G1 F1800
G1 X89.865 Y87.622 E6.13077
G1 X92.052 Y86.725 E6.17554
G1 X93.590 Y86.555 E6.20485
G1 X116.410 Y86.555 E6.63707
G1 X118.740 Y86.952 E6.68185
G1 X120.808 Y88.098 E6.72662
G1 X122.378 Y89.865 E6.77139
G1 X123.275 Y92.052 E6.81617
G1 X123.445 Y93.590 E6.84547
G1 X123.445 Y116.410 E7.27770
G1 X123.048 Y118.740 E7.32247
G1 X121.902 Y120.808 E7.36725
G1 X120.135 Y122.378 E7.41202
G1 X117.948 Y123.275 E7.45680
G1 X116.410 Y123.445 E7.48610
G1 X93.590 Y123.445 E7.91833
G1 X91.260 Y123.048 E7.96310
G1 X89.192 Y121.902 E8.00788
G1 X87.622 Y120.135 E8.05265
G1 X86.725 Y117.948 E8.09743
G1 X86.555 Y116.410 E8.12673
G1 X86.555 Y93.590 E8.55895
G1 X86.952 Y91.260 E8.60373
G1 X88.069 Y89.245 E8.64737
G1 X88.304 Y89.268 F7800.000
G1 F1800
G1 X90.064 Y87.743 E8.69147
G1 X92.234 Y86.898 E8.73558
G1 X93.590 Y86.762 E8.76140
G1 X116.410 Y86.762 E9.19363
G1 X118.705 Y87.159 E9.23773
G1 X120.732 Y88.304 E9.28184
G1 X122.257 Y90.064 E9.32594
G1 X123.102 Y92.234 E9.37005
G1 X123.238 Y93.590 E9.39587
G1 X123.238 Y116.410 E9.82810
G1 X122.841 Y118.705 E9.87220
G1 X121.696 Y120.732 E9.91631
G1 X119.936 Y122.257 E9.96042
G1 X117.766 Y123.102 E10.00452
G1 X116.410 Y123.238 E10.03034
G1 X93.590 Y123.238 E10.46257
G1 X91.295 Y122.841 E10.50667
G1 X89.268 Y121.696 E10.55078
G1 X87.743 Y119.936 E10.59489
G1 X86.898 Y117.766 E10.63899
G1 X86.762 Y116.410 E10.66481
G1 X86.762 Y93.590 E11.09704
G1 X87.159 Y91.295 E11.14114
G1 X88.274 Y89.320 E11.18411
G1 X88.509 Y89.344 F7800.000
G1 F1800
G1 X90.262 Y87.866 E11.22754
G1 X92.413 Y87.074 E11.27097
G1 X93.590 Y86.969 E11.29334
G1 X116.410 Y86.969 E11.72557
G1 X118.668 Y87.366 E11.76900
G1 X120.656 Y88.509 E11.81242
G1 X122.134 Y90.262 E11.85585
G1 X122.926 Y92.413 E11.89928
G1 X123.031 Y93.590 E11.92165
G1 X123.031 Y116.410 E12.35388
G1 X122.634 Y118.668 E12.39731
G1 X121.491 Y120.656 E12.44073
G1 X119.738 Y122.134 E12.48416
G1 X117.587 Y122.926 E12.52759
G1 X116.410 Y123.031 E12.54996
G1 X93.590 Y123.031 E12.98219
G1 X91.332 Y122.634 E13.02561
G1 X89.344 Y121.491 E13.06904
G1 X87.866 Y119.738 E13.11247
G1 X87.074 Y117.587 E13.15590
G1 X86.969 Y116.410 E13.17827
G1 X86.969 Y93.590 E13.61050
G1 X87.366 Y91.332 E13.65392
G1 X88.479 Y89.396 E13.69621
G1 X88.714 Y89.422 F7800.000
G1 F1800
G1 X90.459 Y87.992 E13.73895
G1 X93.590 Y87.176 E13.80023
G1 X116.410 Y87.176 E14.23246
G1 X118.631 Y87.573 E14.27520
G1 X120.578 Y88.714 E14.31793
G1 X122.008 Y90.459 E14.36067
G1 X122.824 Y93.590 E14.42195
G1 X122.824 Y116.410 E14.85418
G1 X122.427 Y118.631 E14.89691
G1 X121.286 Y120.578 E14.93965
G1 X119.541 Y122.008 E14.98239
G1 X116.410 Y122.824 E15.04367
G1 X93.590 Y122.824 E15.47590
G1 X91.369 Y122.427 E15.51863
G1 X89.422 Y121.286 E15.56137
G1 X87.992 Y119.541 E15.60411
G1 X87.176 Y116.410 E15.66539
G1 X87.176 Y93.590 E16.09761
G1 X87.573 Y91.369 E16.14035
G1 X88.684 Y89.474 E16.18195
G1 X88.919 Y89.502 F7800.000
G1 F1800
G1 X90.656 Y88.120 E16.22399
G1 X93.590 Y87.383 E16.28129
G1 X116.410 Y87.383 E16.71351
G1 X118.594 Y87.780 E16.75555
G1 X120.498 Y88.919 E16.79758
G1 X121.880 Y90.656 E16.83962
G1 X122.617 Y93.590 E16.89692
G1 X122.617 Y116.410 E17.32914
G1 X122.220 Y118.594 E17.37118
G1 X121.081 Y120.498 E17.41322
G1 X119.344 Y121.880 E17.45525
G1 X116.410 Y122.617 E17.51255
G1 X93.590 Y122.617 E17.94478
G1 X91.406 Y122.220 E17.98681
G1 X89.502 Y121.081 E18.02885
G1 X88.120 Y119.344 E18.07089
G1 X87.383 Y116.410 E18.12818
G1 X87.383 Y93.590 E18.56041
G1 X87.780 Y91.406 E18.60245
G1 X88.888 Y89.553 E18.64335
G1 F6240
G1 X90.656 Y88.120 E17.39612
G1 F6240
G1 X93.590 Y87.383 E15.73810
G1 F6240
G1 X94.356 Y87.383 E15.31835
G1 E15.14335 F3600.00000
G92 E0
G1 Z1.200 F7800.000
G1 X91.232 Y91.897 F7800.000
G1 Z0.200 F7800.000
G1 E3.50000 F3600.00000
G1 F1800
G1 X92.987 Y90.141 E3.54866
G1 X117.013 Y90.141 E4.01955
G1 X119.859 Y92.987 E4.09845
G1 X119.859 Y117.013 E4.56934
G1 X117.013 Y119.859 E4.64823
G1 X92.987 Y119.859 E5.11912
G1 X90.141 Y117.013 E5.19802
G1 X90.141 Y92.987 E5.66890
G1 X91.189 Y91.939 E5.69796
G1 X91.341 Y92.091 F7800.000
G1 F1800
G1 X93.076 Y90.355 E5.74606
G1 X116.924 Y90.355 E6.21347
G1 X119.645 Y93.076 E6.28889
G1 X119.645 Y116.924 E6.75630
G1 X116.924 Y119.645 E6.83171
G1 X93.076 Y119.645 E7.29912
G1 X90.355 Y116.924 E7.37454
G1 X90.355 Y93.076 E7.84195
G1 X91.298 Y92.133 E7.86809
G1 X91.450 Y92.285 F7800.000
G1 F1800
G1 X93.165 Y90.570 E7.91562
G1 X116.835 Y90.570 E8.37955
G1 X119.430 Y93.165 E8.45149
G1 X119.430 Y116.835 E8.91542
G1 X116.835 Y119.430 E8.98736
G1 X93.165 Y119.430 E9.45129
G1 X90.570 Y116.835 E9.52322
G1 X90.570 Y93.165 E9.98715
G1 X91.407 Y92.327 E10.01038
G1 X91.559 Y92.478 F7800.000
G1 F1800
G1 X93.254 Y90.784 E10.05735
G1 X116.746 Y90.784 E10.51780
G1 X119.216 Y93.254 E10.58626
G1 X119.216 Y116.746 E11.04671
G1 X116.746 Y119.216 E11.11517
G1 X93.254 Y119.216 E11.57562
G1 X90.784 Y116.746 E11.64408
G1 X90.784 Y93.254 E12.10453
G1 X91.517 Y92.521 E12.12484
G1 X91.668 Y92.672 F7800.000
G1 F1800
G1 X93.342 Y90.998 E12.17124
G1 X116.658 Y90.998 E12.62822
G1 X119.002 Y93.342 E12.69319
G1 X119.002 Y116.658 E13.15017
G1 X116.658 Y119.002 E13.21514
G1 X93.342 Y119.002 E13.67212
G1 X90.998 Y116.658 E13.73709
G1 X90.998 Y93.342 E14.19407
G1 X91.626 Y92.715 E14.21146
G1 X91.777 Y92.866 F7800.000
G1 F1800
G1 X93.431 Y91.212 E14.25730
G1 X116.569 Y91.212 E14.71080
G1 X118.788 Y93.431 E14.77229
G1 X118.788 Y116.569 E15.22579
G1 X116.569 Y118.788 E15.28729
G1 X93.431 Y118.788 E15.74078
G1 X91.212 Y116.569 E15.80228
G1 X91.212 Y93.431 E16.25577
G1 X91.735 Y92.909 E16.27025
G1 X91.886 Y93.060 F7800.000
G1 F1800
G1 X93.520 Y91.427 E16.31553
G1 X116.480 Y91.427 E16.76554
G1 X118.573 Y93.520 E16.82356
G1 X118.573 Y116.480 E17.27357
G1 X116.480 Y118.573 E17.33159
G1 X93.520 Y118.573 E17.78161
G1 X91.427 Y116.480 E17.83962
G1 X91.427 Y93.520 E18.28964
G1 X91.844 Y93.103 E18.30120
G1 X91.995 Y93.254 F7800.000
G1 F1800
G1 X93.609 Y91.641 E18.34592
G1 X116.391 Y91.641 E18.79245
G1 X118.359 Y93.609 E18.84699
G1 X118.359 Y116.391 E19.29353
G1 X116.391 Y118.359 E19.34806
G1 X93.609 Y118.359 E19.79460
G1 X91.641 Y116.391 E19.84914
G1 X91.641 Y93.609 E20.29567
G1 X91.953 Y93.297 E20.30432
G1 X92.104 Y93.448 F7800.000
G1 F1800
G1 X93.697 Y91.855 E20.34847
G1 X116.303 Y91.855 E20.79153
G1 X118.145 Y93.697 E20.84259
G1 X118.145 Y116.303 E21.28564
G1 X116.303 Y118.145 E21.33670
G1 X93.697 Y118.145 E21.77976
G1 X91.855 Y116.303 E21.83082
G1 X91.855 Y93.697 E22.27387
G1 X92.062 Y93.491 E22.27960
G1 X92.214 Y93.642 F7800.000
G1 F1800
G1 X93.786 Y92.070 E22.32319
G1 X116.214 Y92.070 E22.76277
G1 X117.930 Y93.786 E22.81035
G1 X117.930 Y116.214 E23.24992
G1 X116.214 Y117.930 E23.29751
G1 X93.786 Y117.930 E23.73708
G1 X92.070 Y116.214 E23.78466
G1 X92.070 Y93.786 E24.22424
G1 X92.171 Y93.685 E24.22705
G1 X92.323 Y93.836 F7800.000
G1 F1800
G1 X93.875 Y92.284 E24.27008
G1 X116.125 Y92.284 E24.70617
G1 X117.716 Y93.875 E24.75028
G1 X117.716 Y116.125 E25.18637
G1 X116.125 Y117.716 E25.23047
G1 X93.875 Y117.716 E25.66657
G1 X92.284 Y116.125 E25.71067
G1 X92.284 Y93.880 E26.14667
G1 X92.498 Y93.964 F7800.000
G1 F1800
G1 X93.964 Y92.498 E26.18729
G1 X116.036 Y92.498 E26.61991
G1 X117.502 Y93.964 E26.66053
G1 X117.502 Y116.036 E27.09315
G1 X116.036 Y117.502 E27.13377
G1 X93.964 Y117.502 E27.56638
G1 X92.498 Y116.036 E27.60701
G1 X92.498 Y94.024 E28.03845
G1 X92.712 Y94.052 F7800.000
G1 F1800
G1 X94.052 Y92.712 E28.07559
G1 X115.948 Y92.712 E28.50473
G1 X117.288 Y94.052 E28.54187
G1 X117.288 Y115.948 E28.97101
G1 X115.948 Y117.288 E29.00815
G1 X94.052 Y117.288 E29.43729
G1 X92.712 Y115.948 E29.47443
G1 X92.712 Y94.112 E29.90239
G1 X92.927 Y94.141 F7800.000
G1 F1800
G1 X94.141 Y92.927 E29.93606
G1 X115.859 Y92.927 E30.36171
G1 X117.073 Y94.141 E30.39538
G1 X117.073 Y115.859 E30.82104
G1 X115.859 Y117.073 E30.85470
G1 X94.141 Y117.073 E31.28036
G1 X92.927 Y115.859 E31.31402
G1 X92.927 Y94.201 E31.73850
G1 X93.141 Y94.230 F7800.000
G1 F1800
G1 X94.230 Y93.141 E31.76869
G1 X115.770 Y93.141 E32.19087
G1 X116.859 Y94.230 E32.22105
G1 X116.859 Y115.770 E32.64323
G1 X115.770 Y116.859 E32.67341
G1 X94.230 Y116.859 E33.09559
G1 X93.141 Y115.770 E33.12578
G1 X93.141 Y94.290 E33.54678
G1 X93.355 Y94.319 F7800.000
G1 F1800
G1 X94.319 Y93.355 E33.57348
G1 X115.681 Y93.355 E33.99218
G1 X116.645 Y94.319 E34.01889
G1 X116.645 Y115.681 E34.43759
G1 X115.681 Y116.645 E34.46429
G1 X94.319 Y116.645 E34.88299
G1 X93.355 Y115.681 E34.90970
G1 X93.355 Y94.379 E35.32722
G1 X93.570 Y94.408 F7800.000
G1 F1800
G1 X94.408 Y93.570 E35.35045
G1 X115.592 Y93.570 E35.76567
G1 X116.430 Y94.408 E35.78889
G1 X116.430 Y115.592 E36.20411
G1 X115.592 Y116.430 E36.22734
G1 X94.408 Y116.430 E36.64256
G1 X93.570 Y115.592 E36.66578
G1 X93.570 Y94.468 E37.07983
G1 X93.784 Y94.496 F7800.000
G1 F1800
G1 X94.496 Y93.784 E37.09957
G1 X115.504 Y93.784 E37.51131
G1 X116.216 Y94.496 E37.53106
G1 X116.216 Y115.504 E37.94280
G1 X115.504 Y116.216 E37.96255
G1 X94.496 Y116.216 E38.37429
G1 X93.784 Y115.504 E38.39403
G1 X93.784 Y94.556 E38.80460
G1 X93.998 Y94.585 F7800.000
G1 F1800
G1 X94.585 Y93.998 E38.82087
G1 X115.415 Y93.998 E39.22913
G1 X116.002 Y94.585 E39.24539
G1 X116.002 Y115.415 E39.65366
G1 X115.415 Y116.002 E39.66992
G1 X94.585 Y116.002 E40.07818
G1 X93.998 Y115.415 E40.09445
G1 X93.998 Y94.645 E40.50154
G1 X94.212 Y94.674 F7800.000
G1 F1800
G1 X94.674 Y94.212 E40.51432
G1 X115.326 Y94.212 E40.91911
G1 X115.788 Y94.674 E40.93189
G1 X115.788 Y115.326 E41.33668
G1 X115.326 Y115.788 E41.34946
G1 X94.674 Y115.788 E41.75424
G1 X94.212 Y115.326 E41.76703
G1 X94.212 Y94.734 E42.17064
G1 X94.427 Y94.763 F7800.000
G1 F1800
G1 X94.763 Y94.427 E42.17995
G1 X115.237 Y94.427 E42.58125
G1 X115.573 Y94.763 E42.59056
G1 X115.573 Y115.237 E42.99186
G1 X115.237 Y115.573 E43.00117
G1 X94.763 Y115.573 E43.40247
G1 X94.427 Y115.237 E43.41178
G1 X94.427 Y94.823 E43.81191
G1 X94.641 Y94.851 F7800.000
G1 F1800
G1 X94.851 Y94.641 E43.81774
G1 X115.149 Y94.641 E44.21556
G1 X115.359 Y94.851 E44.22139
G1 X115.359 Y115.149 E44.61921
G1 X115.149 Y115.359 E44.62504
G1 X94.851 Y115.359 E45.02286
G1 X94.641 Y115.149 E45.02869
G1 X94.641 Y94.911 E45.42534
G1 X94.855 Y94.940 F7800.000
G1 F1800
G1 X94.940 Y94.855 E45.42769
G1 X115.060 Y94.855 E45.82203
G1 X115.145 Y94.940 E45.82438
G1 X115.145 Y115.060 E46.21873
G1 X115.060 Y115.145 E46.22108
G1 X94.940 Y115.145 E46.61542
G1 X94.855 Y115.060 E46.61777
G1 X94.855 Y95.000 E47.01094
M109 S165 ; set temperature and wait for it to be reached
M190 S60 ; set bed temperature and wait for it to be reached

G1 F6240
G1 X94.855 Y94.940 E46.97805
G1 F6240
G1 X94.940 Y94.855 E46.91235
G1 F6240
G1 X100.827 Y94.855 E43.68594
G1 E43.51094 F3600.00000
G92 E0
G1 Z1.200 F7800.000
G1 X99.199 Y95.339 F7800.000
G1 Z0.500 F7800.000
G1 E3.50000 F3600.00000
G1 F3600
G1 X100.103 Y93.774 E3.52867
G1 X95.171 Y93.774 E3.60690
G1 X96.075 Y95.339 E3.63557
G1 X99.199 Y95.339 E3.68513
G1 X108.334 Y95.339 F7800.000
G1 F3600
G1 X109.238 Y93.774 E3.71380
G1 X104.306 Y93.774 E3.79203
G1 X105.210 Y95.339 E3.82070
G1 X108.334 Y95.339 E3.87025
G1 X116.226 Y95.339 F7800.000
G1 F3600
G1 X116.226 Y93.774 E3.89508
G1 X113.441 Y93.774 E3.93925
G1 X114.345 Y95.339 E3.96792
G1 X116.226 Y95.339 E3.99776
G1 X116.226 Y100.614 F7800.000
G1 F3600
G1 X116.226 Y95.476 E4.07924
G1 X114.345 Y95.476 E4.10908
G1 X112.902 Y97.976 E4.15487
G1 X109.778 Y97.976 E4.20443
G1 X108.334 Y95.476 E4.25022
G1 X105.210 Y95.476 E4.29978
G1 X103.767 Y97.976 E4.34557
G1 X100.643 Y97.976 E4.39513
G1 X99.199 Y95.476 E4.44092
G1 X96.075 Y95.476 E4.49048
G1 X94.632 Y97.976 E4.53627
G1 X93.774 Y97.976 E4.54987
G1 X93.774 Y98.114 E4.55204
G1 X94.632 Y98.114 E4.56564
G1 X96.075 Y100.614 E4.61144
G1 X99.199 Y100.614 E4.66099
G1 X100.643 Y98.114 E4.70679
G1 X103.767 Y98.114 E4.75634
G1 X105.210 Y100.614 E4.80214
G1 X108.334 Y100.614 E4.85169
G1 X109.778 Y98.114 E4.89749
G1 X112.902 Y98.114 E4.94704
G1 X114.345 Y100.614 E4.99283
G1 X116.226 Y100.614 E5.02267
G1 X116.226 Y105.888 F7800.000
G1 F3600
G1 X116.226 Y100.751 E5.10416
G1 X114.345 Y100.751 E5.13399
G1 X112.902 Y103.251 E5.17978
G1 X109.778 Y103.251 E5.22934
G1 X108.334 Y100.751 E5.27513
G1 X105.210 Y100.751 E5.32469
G1 X103.767 Y103.251 E5.37048
G1 X100.643 Y103.251 E5.42004
G1 X99.199 Y100.751 E5.46583
G1 X96.075 Y100.751 E5.51539
G1 X94.632 Y103.251 E5.56118
G1 X93.774 Y103.251 E5.57478
G1 X93.774 Y103.388 E5.57696
G1 X94.632 Y103.388 E5.59056
G1 X96.075 Y105.888 E5.63635
G1 X99.199 Y105.888 E5.68591
G1 X100.643 Y103.388 E5.73170
G1 X103.767 Y103.388 E5.78126
G1 X105.210 Y105.888 E5.82705
G1 X108.334 Y105.888 E5.87661
G1 X109.778 Y103.388 E5.92240
G1 X112.902 Y103.388 E5.97196
G1 X114.345 Y105.888 E6.01775
G1 X116.226 Y105.888 E6.04758
G1 X116.226 Y111.162 F7800.000
G1 F3600
G1 X116.226 Y106.025 E6.12907
G1 X114.345 Y106.025 E6.15890
G1 X112.902 Y108.525 E6.20469
G1 X109.778 Y108.525 E6.25425
G1 X108.334 Y106.025 E6.30004
G1 X105.210 Y106.025 E6.34960
G1 X103.767 Y108.525 E6.39539
G1 X100.643 Y108.525 E6.44495
G1 X99.199 Y106.025 E6.49074
G1 X96.075 Y106.025 E6.54030
G1 X94.632 Y108.525 E6.58609
G1 X93.774 Y108.525 E6.59969
G1 X93.774 Y108.662 E6.60187
G1 X94.632 Y108.662 E6.61547
G1 X96.075 Y111.162 E6.66126
G1 X99.199 Y111.162 E6.71082
G1 X100.643 Y108.662 E6.75661
G1 X103.767 Y108.662 E6.80617
G1 X105.210 Y111.162 E6.85196
G1 X108.334 Y111.162 E6.90152
G1 X109.778 Y108.662 E6.94731
G1 X112.902 Y108.662 E6.99687
G1 X114.345 Y111.162 E7.04266
G1 X116.226 Y111.162 E7.07249
G1 X116.226 Y116.226 F7800.000
G1 F3600
G1 X116.226 Y111.299 E7.15065
G1 X114.345 Y111.299 E7.18048
G1 X112.902 Y113.799 E7.22627
G1 X109.778 Y113.799 E7.27583
G1 X108.334 Y111.299 E7.32162
G1 X105.210 Y111.299 E7.37118
G1 X103.767 Y113.799 E7.41697
G1 X100.643 Y113.799 E7.46653
G1 X99.199 Y111.299 E7.51232
G1 X96.075 Y111.299 E7.56188
G1 X94.632 Y113.799 E7.60767
G1 X93.774 Y113.799 E7.62127
G1 X93.774 Y113.936 E7.62345
G1 X94.632 Y113.936 E7.63705
G1 X95.954 Y116.226 E7.67899
G1 X99.320 Y116.226 E7.73240
G1 X100.643 Y113.936 E7.77434
G1 X103.767 Y113.936 E7.82390
G1 X105.089 Y116.226 E7.86584
